icons/midnadark/actions/24/music-amarok.svg

<?xml version="1.0" encoding="UTF-8" standalone="no"?>
<!-- Created with Inkscape (http://www.inkscape.org/) -->

<svg
   xmlns:dc="http://purl.org/dc/elements/1.1/"
   xmlns:cc="http://creativecommons.org/ns#"
   xmlns:rdf="http://www.w3.org/1999/02/22-rdf-syntax-ns#"
   xmlns:svg="http://www.w3.org/2000/svg"
   xmlns="http://www.w3.org/2000/svg"
   xmlns:sodipodi="http://sodipodi.sourceforge.net/DTD/sodipodi-0.dtd"
   xmlns:inkscape="http://www.inkscape.org/namespaces/inkscape"
   width="22"
   height="22"
   id="svg3049"
   version="1.1"
   inkscape:version="0.91 r13725"
   sodipodi:docname="music-amarok.svg"
   inkscape:export-filename="/home/uri/.kde/share/icons/NITRUX-KDE/16x16/actions/view-right-new.png"
   inkscape:export-xdpi="30"
   inkscape:export-ydpi="30">
  <defs
     id="defs3051" />
  <sodipodi:namedview
     id="base"
     pagecolor="#ffffff"
     bordercolor="#666666"
     borderopacity="1.0"
     inkscape:pageopacity="0.0"
     inkscape:pageshadow="2"
     inkscape:zoom="22.627417"
     inkscape:cx="-8.7671131"
     inkscape:cy="11.966894"
     inkscape:document-units="px"
     inkscape:current-layer="layer1"
     showgrid="true"
     fit-margin-top="0"
     fit-margin-left="0"
     fit-margin-right="0"
     fit-margin-bottom="0"
     inkscape:window-width="1366"
     inkscape:window-height="633"
     inkscape:window-x="0"
     inkscape:window-y="33"
     inkscape:window-maximized="1"
     inkscape:showpageshadow="false"
     borderlayer="true"
     showguides="true"
     inkscape:object-nodes="true">
    <sodipodi:guide
       position="2.0000044,20.00003"
       orientation="18,0"
       id="guide4067" />
    <sodipodi:guide
       position="2.0000044,2.0000296"
       orientation="0,18"
       id="guide4069" />
    <sodipodi:guide
       position="20.000004,2.0000296"
       orientation="-18,0"
       id="guide4071" />
    <sodipodi:guide
       position="20.000004,20.00003"
       orientation="0,-18"
       id="guide4073" />
    <sodipodi:guide
       position="3.0000044,19.00003"
       orientation="16,0"
       id="guide4077" />
    <sodipodi:guide
       position="3.0000044,3.0000296"
       orientation="0,16"
       id="guide4079" />
    <sodipodi:guide
       position="19.000004,3.0000296"
       orientation="-16,0"
       id="guide4081" />
    <sodipodi:guide
       position="19.000004,19.00003"
       orientation="0,-16"
       id="guide4083" />
    <inkscape:grid
       type="xygrid"
       id="grid4085" />
  </sodipodi:namedview>
  <metadata
     id="metadata3054">
    <rdf:RDF>
      <cc:Work
         rdf:about="">
        <dc:format>image/svg+xml</dc:format>
        <dc:type
           rdf:resource="http://purl.org/dc/dcmitype/StillImage" />
        <dc:title />
      </cc:Work>
    </rdf:RDF>
  </metadata>
  <g
     inkscape:label="Capa 1"
     inkscape:groupmode="layer"
     id="layer1"
     transform="translate(-421.71429,-525.79074)">
    <path
       style="opacity:1;fill:#ffffff;fill-opacity:1;stroke:none"
       d="M 4.5,3 C 3.6715787,3 3.0000083,3.6715704 3,4.5 3.0000083,5.3284296 3.6715787,6 4.5,6 5.3284213,6 5.9999917,5.3284296 6,4.5 5.9999917,3.6715704 5.3284213,3 4.5,3 Z M 7,4 7,5 8,5 8,4 Z m 2,0 0,1 10,0 0,-1 z m 0,2 0,1 3,0 0,-1 z M 4.5,9 C 3.6715732,8.9999988 3,9.6715721 3,10.5 3,11.328428 3.6715732,12.000001 4.5,12 5.3284268,12.000001 6,11.328428 6,10.5 6,9.6715721 5.3284268,8.9999988 4.5,9 Z m 2.5,1 0,1 1,0 0,-1 z m 2,0 0,1 5,0 0,-1 z m 0,2 0,1 4,0 0,-1 z M 4.5,15 C 3.6715732,14.999999 3,15.671572 3,16.5 3,17.328428 3.6715732,18.000001 4.5,18 5.3284268,18.000001 6,17.328428 6,16.5 6,15.671572 5.3284268,14.999999 4.5,15 Z m 2.5,1 0,1 1,0 0,-1 z m 2,0 0,1 10,0 0,-1 z m 0,2 0,1 7,0 0,-1 z"
       transform="translate(421.71429,525.79074)"
       id="path4174"
       inkscape:connector-curvature="0"
       sodipodi:nodetypes="scscscccccccccccccccssssscccccccccccccccsssssccccccccccccccc" />
    <path
       style="fill:#1d99f3;fill-opacity:1;stroke:none"
       d="m 440.71429,539.79074 c 0,0 0,-6 0,-6 l -4,3 z"
       id="path2996"
       inkscape:connector-curvature="0" />
  </g>
</svg>

<svg xmlns="http://www.w3.org/2000/svg" viewBox="0 0 22 22"><g transform="translate(-421.71-525.79)"><path d="m4.5 3c-.828 0-1.5.672-1.5 1.5 0 .828.672 1.5 1.5 1.5.828 0 1.5-.672 1.5-1.5 0-.828-.672-1.5-1.5-1.5m2.5 1v1h1v-1m1 0v1h10v-1zm0 2v1h3v-1zm-4.5 3c-.828 0-1.5.672-1.5 1.5 0 .828.672 1.5 1.5 1.5.828 0 1.5-.672 1.5-1.5 0-.828-.672-1.5-1.5-1.5m2.5 1v1h1v-1zm2 0v1h5v-1zm0 2v1h4v-1zm-4.5 3c-.828 0-1.5.672-1.5 1.5 0 .828.672 1.5 1.5 1.5.828 0 1.5-.672 1.5-1.5 0-.828-.672-1.5-1.5-1.5m2.5 1v1h1v-1zm2 0v1h10v-1zm0 2v1h7v-1z" transform="translate(421.71 525.79)" fill="#fff"/><path d="m440.71 539.79c0 0 0-6 0-6l-4 3z" fill="#1d99f3"/></g></svg>
